X: 26287
T: Memorable Evening, The
R: reel
M: 4/4
K: Dmajor
|:~F2DF BAGF|GBed cABc|dcdA B/c/dAF|EFGB cAGE|
~F2DF BAGF|GBed cABc|dcdA B/c/dAF|1 GE[FC]E D2AG:|2 GE[FC]E DABc||
|:~d2fd gfed|ceAc dcBA|BGBd gfed|cAce afge|
~d2fd gfed|ceAc dcBA|BGBd gfed|1 c/d/eAc BGBc:|2 cAGE D2AG||

